X: 801
M: C
L: 1/8
K: Ador
V: 1
e2ed eAAB | dedB GABd |\
e2ed e>fge | dBgB A/A/A A :|
|: B |\
edef g2(Tfe) | d>edB d>edB |\
edef ga(gf) | dBgB A/A/A A :|
V: 2 clef=bass middle=d
z |\
a2a2 a2a2 | g2g2 g2g2 |\
a2a2 a2a2 | e2e2 A2A :|\
|: z |
a2a2 a2a2 | g2g2 g2g2 |\
a2a2 a2a2 | e2e2 A2A :|\

